X: 36524
T: Session Night, The
R: jig
M: 6/8
K: Dminor
|:~D3 DCD|A,DD DCD|A,DD DCD|~F3 ~G3|
~D3 DCD|A,DD DCD|ABA GFE|~D3 D2C:|
|:B,2C D2E|F2D DCA,|B,2C D2F|G2D DCA,|
B,2C D2F|ABA AGF|GFD FDC|~D3 D2C:|

